svgs/sharp-solid/circle-microphone.svg

<svg xmlns="http://www.w3.org/2000/svg" viewBox="0 0 512 512"><!--! Font Awesome Pro 6.4.0 by @fontawesome - https://fontawesome.com License - https://fontawesome.com/license (Commercial License) Copyright 2023 Fonticons, Inc. --><path d="M256 512A256 256 0 1 0 256 0a256 256 0 1 0 0 512zM208 256V96h96V256c0 26.5-21.5 48-48 48s-48-21.5-48-48zm-48-32v16 16c0 53 43 96 96 96s96-43 96-96V240 224h32v16 16c0 65.3-48.9 119.1-112 127v17 16H240V400 383c-63.1-7.9-112-61.7-112-127V240 224h32z"/></svg>

<svg xmlns="http://www.w3.org/2000/svg" viewBox="0 0 512 512"><!--! Font Awesome Pro 6.6.0 by @fontawesome - https://fontawesome.com License - https://fontawesome.com/license (Commercial License) Copyright 2024 Fonticons, Inc. --><path d="M256 512A256 256 0 1 0 256 0a256 256 0 1 0 0 512zM208 256l0-160 96 0 0 160c0 26.5-21.5 48-48 48s-48-21.5-48-48zm-48-32l0 16 0 16c0 53 43 96 96 96s96-43 96-96l0-16 0-16 32 0 0 16 0 16c0 65.3-48.9 119.1-112 127l0 17 0 16-32 0 0-16 0-17c-63.1-7.9-112-61.7-112-127l0-16 0-16 32 0z"/></svg>
